assets/symbols/mulberry/flag_united_arab_emirates.svg

<svg height="850.89" viewBox="0 0 850.89 850.89" width="850.89" xmlns="http://www.w3.org/2000/svg"><path d="m748.43 264.25v132h-440.18v-132h438z" fill="#fff"/><path d="m162.86 114.67v670.96h-39.49l-1.12-670.61c5.8 2.59 12.62 4.08 19.92 4.08 7.62 0 14.73-1.63 20.69-4.43z" fill="#c8c8c8"/><path d="m748.43 396.25v124.17h-440.18v-124.17h438z" fill="#231f20"/><path d="m748.43 177.71v86.54h-440.18v-123.66h440.18z" fill="#34a047"/><path d="m308.25 516.25v4.17h-139.44l-3.49-379.83h142.93v255.66z" fill="#ed1e29"/><path d="m122.25 115.02c-10.99-4.89-18.33-13.72-18.33-23.8 0-15.4 17.13-27.88 38.25-27.88 21.13 0 38.26 12.48 38.26 27.88 0 9.84-7 18.49-17.57 23.45-5.96 2.8-13.07 4.43-20.69 4.43-7.3 0-14.12-1.49-19.92-4.08z" fill="#c8c8c8"/><g fill="none"><g stroke="#231f20"><path d="m165.32 140.59h583.11v379.83h-579.62m-46.56-405.4c-10.99-4.89-18.33-13.72-18.33-23.8 0-15.4 17.13-27.88 38.25-27.88 21.13 0 38.26 12.48 38.26 27.88 0 9.84-7 18.49-17.57 23.45-5.96 2.8-13.07 4.43-20.69 4.43-7.3 0-14.12-1.49-19.92-4.08z" stroke-width="21"/><path d="m122.25 114.25v.77l1.12 670.61m39.49-672.78v672.78" stroke-width="21"/><path d="m745.01 179.64 3.42-1.93 2.01-1.14m-442.19-36.32v376m0-252h438m-438 132h438" stroke-width="14"/></g><path d="m.25.25h850.394v850.394h-850.394z"/></g></svg>

<svg xmlns="http://www.w3.org/2000/svg" width="850.89" height="850.89" viewBox="0 0 850.89 850.89" overflow="visible"><path fill="#fff" d="M748.43 264.25v132H308.25v-132h438z"/><path d="M162.86 114.67v670.96h-39.49l-1.12-670.61c5.8 2.59 12.62 4.08 19.92 4.08 7.62 0 14.73-1.63 20.69-4.43z" fill="#c8c8c8"/><path fill="#231f20" d="M748.43 396.25v124.17H308.25V396.25h438z"/><path fill="#34a047" d="M748.43 177.71v86.54H308.25V140.59h440.18z"/><path fill="#ed1e29" d="M308.25 516.25v4.17H168.81l-3.49-379.83h142.93v255.66z"/><path d="M122.25 115.02c-10.99-4.89-18.33-13.72-18.33-23.8 0-15.4 17.13-27.88 38.25-27.88 21.13 0 38.26 12.48 38.26 27.88 0 9.84-7 18.49-17.57 23.45-5.96 2.8-13.07 4.43-20.69 4.43-7.3 0-14.12-1.49-19.92-4.08z" fill="#c8c8c8"/><g fill="none" stroke="#231f20"><path stroke-width="21" d="M165.32 140.59h583.11v379.83H168.81M122.25 115.02c-10.99-4.89-18.33-13.72-18.33-23.8 0-15.4 17.13-27.88 38.25-27.88 21.13 0 38.26 12.48 38.26 27.88 0 9.84-7 18.49-17.57 23.45-5.96 2.8-13.07 4.43-20.69 4.43-7.3 0-14.12-1.49-19.92-4.08z"/><path stroke-width="21" d="M122.25 114.25v.77l1.12 670.61M162.86 112.85V785.63"/><path stroke-width="14" d="M745.01 179.64l3.42-1.93 2.01-1.14M308.25 140.25v376M308.25 264.25h438M308.25 396.25h438"/></g><path fill="none" d="M.25.25h850.394v850.394H.25z"/></svg>
